img/icon-share.svg

<?xml version="1.0" encoding="UTF-8" standalone="no"?>
<svg width="30px" height="22px" viewBox="0 0 30 22" version="1.1" xmlns="http://www.w3.org/2000/svg" xmlns:xlink="http://www.w3.org/1999/xlink" xmlns:sketch="http://www.bohemiancoding.com/sketch/ns">
    <!-- Generator: Sketch 3.3 (11970) - http://www.bohemiancoding.com/sketch -->
    <title>Fill 1 + Rectangle 84</title>
    <desc>Created with Sketch.</desc>
    <defs></defs>
    <g id="Page-1" stroke="none" stroke-width="1" fill="none" fill-rule="evenodd" sketch:type="MSPage">
        <g id="邀请函" sketch:type="MSArtboardGroup" transform="translate(-581.000000, -73.000000)">
            <g id="HEAD" sketch:type="MSLayerGroup" transform="translate(35.000000, 40.000000)">
                <g id="Fill-1-+-Rectangle-84" transform="translate(517.000000, 0.000000)" sketch:type="MSShapeGroup">
                    <path d="M29.2616095,51.1202193 C31.5314303,46.3890575 36.1662143,40.1022591 44.9304165,39.3188806 C45.9497971,39.2175603 46.7492387,38.3909353 46.7826002,37.3764971 C46.7838358,37.3530205 46.7838358,37.3295438 46.7838358,37.3060672 C46.7838358,37.2825905 46.7838358,37.2603495 46.7826002,37.2368729 L46.7826002,34.4122618 L46.7838358,34.4122618 C46.7838358,33.9143098 47.1952949,33.5115 47.7031318,33.5115 C47.9243065,33.5115 48.126947,33.5893436 48.2851055,33.7166117 C48.296226,33.7264966 48.3073465,33.7351459 48.318467,33.7462664 L58.0736308,42.2868227 C58.0748664,42.2868227 58.076102,42.2868227 58.0785732,42.2905296 L58.1984277,42.3955567 C58.5876458,42.7637693 58.8298259,43.2790199 58.8298259,43.8511086 C58.8298259,44.3527675 58.6420127,44.8124155 58.3331095,45.1645651 L57.9797242,45.4870601 L48.3518286,54.2253145 C48.3382368,54.2389062 48.3258807,54.2512623 48.312289,54.2623828 C48.1491881,54.4032427 47.9366627,54.4885 47.7031318,54.4885 C47.1952949,54.4885 46.7838358,54.0881614 46.7838358,53.5902094 L46.7826002,53.5902094 L46.7826002,50.0563566 C46.7838358,50.0316443 46.7838358,50.0094033 46.7838358,49.9859266 C46.7838358,49.9636856 46.7838358,49.940209 46.7826002,49.9179679 C46.7467675,48.8318642 45.8361208,47.9632283 44.7203623,47.9632283 L44.7203623,47.9607571 C39.0896744,48.0719623 34.4894876,48.7725548 30.8085968,52.0679344 C30.8085968,52.0679344 30.8085968,52.0679344 30.8073612,52.0679344 C30.7381669,52.129715 30.6689726,52.1914956 30.6022495,52.2545119 L30.6010138,52.2557475 C30.4539759,52.3533609 30.2772833,52.4101991 30.0869989,52.4101991 C29.5803976,52.4101991 29.1701741,52.0073893 29.1701741,51.5106729 C29.1701741,51.3710487 29.2023001,51.2388381 29.2616095,51.1202193" id="Fill-1" fill="#FFFFFF"></path>
                    <rect id="Rectangle-84" x="0" y="0" width="88" height="88"></rect>
                </g>
            </g>
        </g>
    </g>
</svg>

<?xml version="1.0" encoding="utf-8"?>
<!-- Generator: Adobe Illustrator 16.0.0, SVG Export Plug-In . SVG Version: 6.00 Build 0)  -->
<!DOCTYPE svg PUBLIC "-//W3C//DTD SVG 1.1//EN" "http://www.w3.org/Graphics/SVG/1.1/DTD/svg11.dtd">
<svg version="1.1" id="图层_1" xmlns:sketch="http://www.bohemiancoding.com/sketch/ns"
	 xmlns="http://www.w3.org/2000/svg" xmlns:xlink="http://www.w3.org/1999/xlink" x="0px" y="0px" width="88px" height="88px"
	 viewBox="-29 -33 88 88" enable-background="new -29 -33 88 88" xml:space="preserve">
<title>Fill 1 + Rectangle 84</title>
<desc>Created with Sketch.</desc>
<g id="Page-1" sketch:type="MSPage">
	<g id="邀请函" transform="translate(-581.000000, -73.000000)" sketch:type="MSArtboardGroup">
		<g id="HEAD" transform="translate(35.000000, 40.000000)" sketch:type="MSLayerGroup">
			<g id="Fill-1-_x2B_-Rectangle-84" transform="translate(517.000000, 0.000000)" sketch:type="MSShapeGroup">
				<path id="Fill-1" fill="#FFFFFF" d="M29.262,51.12c2.27-4.731,6.904-11.018,15.668-11.801c1.02-0.101,1.819-0.928,1.854-1.942
					c0-0.023,0-0.047,0-0.07s0-0.046,0-0.069v-2.825l0,0c0-0.498,0.412-0.9,0.92-0.9c0.221,0,0.424,0.078,0.582,0.205
					c0.012,0.01,0.021,0.019,0.033,0.029l9.756,8.541c0,0,0.002,0,0.004,0.004l0.12,0.105c0.39,0.368,0.632,0.883,0.632,1.456
					c0,0.501-0.188,0.961-0.497,1.313l-0.354,0.323l-9.628,8.738c-0.014,0.013-0.025,0.026-0.039,0.036
					c-0.163,0.142-0.376,0.227-0.609,0.227c-0.508,0-0.92-0.4-0.92-0.898l0,0v-3.533c0-0.025,0-0.047,0-0.07
					c0-0.022,0-0.046,0-0.068c-0.037-1.086-0.947-1.955-2.062-1.955v-0.002c-5.631,0.111-10.231,0.812-13.912,4.107c0,0,0,0-0.001,0
					c-0.069,0.062-0.138,0.123-0.205,0.186l-0.001,0.002c-0.147,0.098-0.324,0.154-0.514,0.154c-0.506,0-0.917-0.402-0.917-0.899
					C29.17,51.371,29.202,51.238,29.262,51.12"/>
				<rect id="Rectangle-84" fill="none" width="88" height="88"/>
			</g>
		</g>
	</g>
</g>
</svg>
